X:39
T:Jigs simple chords 55
M:3/4
L:1/8
K:D
A[dD,F,A,] AF DF | A[dD,F,A,] ed cB | A[dD,F,A,] cd ef | g[fB,DF] df ec | A[dD,F,A,] AF DF |
A[dD,F,A,] ed cB | A[dB,DF] cd ef | g[fD,F,A,] ed d2 | A[dD,F,A,] AF DF |
A[dD,F,A,] ed cB | A[dD,F,A,] cd ef | g[fB,DF] df ec | A[dD,F,A,] AF DF |
A[dD,F,A,] ed cB | A[dB,DF] cd ef | g[fD,F,A,] ed d2 | e[fD,F,A,] df fg |
a[eA,CE] cA AB | c[dB,DF] cd Be | d[cA,CEG] BA A2 | =c[BG,B,D] GB B^c |
d[AD,F,A,] FD DF | A[dD,F,A,] cd ef | g[fD,F,A,] ed d2 | e[fD,F,A,] df fg |
a[eA,CE] cA AB | c[dB,DF] cd Be | d[cA,CEG] BA A2 | =c[BG,B,D] GB B^c |
d[AD,F,A,] FD DF | A[dD,F,A,] cd ef | g[fD,F,A,] ed d2 |


